web/teamcity/apple-mask-icon.svg

<svg enable-background="new 0 0 16 16" height="16" viewBox="0 0 16 16" width="16" xmlns="http://www.w3.org/2000/svg"><path d="m1 1v14h14v-14zm2 2.1h4.8v1.2h-1.8v4.6h-1.2v-4.6h-1.8zm6 9.9h-6v-1h6zm1.8-4.2c-1.8.2-3-1.1-3-2.8s1.2-3 3-3c1.1 0 1.7.4 2.2.9l-.8.9c-.4-.4-.9-.7-1.4-.7-1 0-1.6.8-1.6 1.8s.7 1.8 1.6 1.8c.6 0 1-.3 1.5-.7l.8.8c-.6.6-1.2 1-2.3 1z"/></svg>

<?xml version="1.0" encoding="utf-8"?>
<!-- Generator: Adobe Illustrator 19.1.0, SVG Export Plug-In . SVG Version: 6.00 Build 0)  -->
<svg version="1.1" id="Layer_1" xmlns="http://www.w3.org/2000/svg" xmlns:xlink="http://www.w3.org/1999/xlink" x="0px" y="0px"
	 width="16" height="16" viewBox="0 0 16 16" style="enable-background:new 0 0 16 16;" xml:space="preserve">
<path d="M1,1v14h14V1H1z M3,3.1h4.8v1.2H6v4.6H4.8V4.3H3V3.1z M9,13H3v-1h6V13z M10.8,8.8C9,9,7.8,7.7,7.8,6s1.2-3,3-3
	c1.1,0,1.7,0.4,2.2,0.9l-0.8,0.9c-0.4-0.4-0.9-0.7-1.4-0.7c-1,0-1.6,0.8-1.6,1.8s0.7,1.8,1.6,1.8c0.6,0,1-0.3,1.5-0.7l0.8,0.8
	C12.5,8.4,11.9,8.8,10.8,8.8z"/>
</svg>
